apps/www/public/images/pricing/compute-dark.svg

<svg width="411" height="231" viewBox="0 0 411 231" fill="none" xmlns="http://www.w3.org/2000/svg">
<path d="M124.043 84.1572L96.0293 100.165L124.043 116.173M124.043 84.1572L152.057 100.165L124.043 116.173M124.043 84.1572V116.173" stroke="#282828"/>
<path d="M124.043 52.1414L96.0293 68.1493L124.043 84.1572M124.043 52.1414L152.057 68.1493L124.043 84.1572M124.043 52.1414V84.1572" stroke="#282828"/>
<path d="M68.0158 84.1572L40.002 100.165L68.0158 116.173M68.0158 84.1572L96.0297 100.165L68.0158 116.173M68.0158 84.1572V116.173" stroke="#282828"/>
<path d="M208.088 4.11768L11.9375 116.203L208.088 228.289L404.238 116.203L208.088 4.11768Z" stroke="#282828"/>
<path d="M68.0158 116.173L40.002 132.181L68.0158 148.189M68.0158 116.173L96.0297 132.181L68.0158 148.189M68.0158 116.173V148.189" stroke="#282828"/>
<path d="M124.043 116.173L96.0293 132.181L124.043 148.189M124.043 116.173L152.057 132.181L124.043 148.189M124.043 116.173V148.189" stroke="#282828"/>
<path d="M124.043 148.189L96.0293 164.197L124.043 180.205M124.043 148.189L152.057 164.197L124.043 180.205M124.043 148.189V180.205" stroke="#282828"/>
<path d="M180.071 84.1572L152.057 100.165L180.071 116.173M180.071 84.1572L208.084 100.165L180.071 116.173M180.071 84.1572V116.173" stroke="#282828"/>
<path d="M180.071 52.1414L152.057 68.1493L180.071 84.1572M180.071 52.1414L208.084 68.1493L180.071 84.1572M180.071 52.1414V84.1572" stroke="#282828"/>
<path d="M180.071 20.1255L152.057 36.1334L180.071 52.1413M180.071 20.1255L208.084 36.1334L180.071 52.1413M180.071 20.1255V52.1413" stroke="#282828"/>
<path d="M180.071 116.173L152.057 132.181L180.071 148.189M180.071 116.173L208.084 132.181L180.071 148.189M180.071 116.173V148.189" stroke="#282828"/>
<path d="M180.071 148.189L152.057 164.197L180.071 180.205M180.071 148.189L208.084 164.197L180.071 180.205M180.071 148.189V180.205" stroke="#282828"/>
<path d="M180.071 180.205L152.057 196.213L180.071 212.221M180.071 180.205L208.084 196.213L180.071 212.221M180.071 180.205V212.221" stroke="#282828"/>
<path d="M236.1 84.1572L208.086 100.165L236.1 116.173M236.1 84.1572L264.114 100.165L236.1 116.173M236.1 84.1572V116.173" stroke="#282828"/>
<path d="M236.1 52.1414L208.086 68.1493L236.1 84.1572M236.1 52.1414L264.114 68.1493L236.1 84.1572M236.1 52.1414V84.1572" stroke="#282828"/>
<path d="M236.1 20.1255L208.086 36.1334L236.1 52.1413M236.1 20.1255L264.114 36.1334L236.1 52.1413M236.1 20.1255V52.1413" stroke="#282828"/>
<path d="M236.1 116.173L208.086 132.181L236.1 148.189M236.1 116.173L264.114 132.181L236.1 148.189M236.1 116.173V148.189" stroke="#282828"/>
<path d="M208.203 132.178L180.046 148.238L151.682 132.178" stroke="#282828"/>
<path d="M236.1 148.189L208.086 164.197L236.1 180.205M236.1 148.189L264.114 164.197L236.1 180.205M236.1 148.189V180.205" stroke="#282828"/>
<path d="M236.1 180.205L208.086 196.213L236.1 212.221M236.1 180.205L264.114 196.213L236.1 212.221M236.1 180.205V212.221" stroke="#282828"/>
<path d="M292.127 84.1572L264.113 100.165L292.127 116.173M292.127 84.1572L320.141 100.165L292.127 116.173M292.127 84.1572V116.173" stroke="#282828"/>
<path d="M348.155 84.1572L320.141 100.165L348.155 116.173M348.155 84.1572L376.168 100.165L348.155 116.173M348.155 84.1572V116.173" stroke="#282828"/>
<path d="M292.127 52.1414L264.113 68.1493L292.127 84.1572M292.127 52.1414L320.141 68.1493L292.127 84.1572M292.127 52.1414V84.1572" stroke="#282828"/>
<path d="M292.127 116.173L264.113 132.181L292.127 148.189M292.127 116.173L320.141 132.181L292.127 148.189M292.127 116.173V148.189" stroke="#282828"/>
<path d="M348.155 116.173L320.141 132.181L348.155 148.189M348.155 116.173L376.168 132.181L348.155 148.189M348.155 116.173V148.189" stroke="#282828"/>
<path d="M292.127 148.189L264.113 164.197L292.127 180.205M292.127 148.189L320.141 164.197L292.127 180.205M292.127 148.189V180.205" stroke="#282828"/>
<g filter="url(#filter0_b_188_13150)">
<path d="M236.172 101.912L208.236 118.291L180.07 101.972L208.242 85.8516L236.172 101.912Z" fill="#161616"/>
<path d="M236.218 101.899L236.178 116.903L208.198 133.142L208.237 118.261L236.218 101.899Z" fill="#161616"/>
<path d="M208.237 118.256L208.197 133.127L180.031 116.859L180.071 101.987L208.237 118.256Z" fill="#161616"/>
<path d="M236.172 101.912L208.236 118.291L180.07 101.972L208.242 85.8516L236.172 101.912Z" stroke="#3E3E3E" stroke-linejoin="bevel"/>
<path d="M236.218 101.899L236.178 116.903L208.198 133.142L208.237 118.261L236.218 101.899Z" stroke="#3E3E3E" stroke-linejoin="bevel"/>
<path d="M208.237 118.256L208.197 133.127L180.031 116.859L180.071 101.987L208.237 118.256Z" stroke="#3E3E3E" stroke-linejoin="bevel"/>
</g>
<defs>
<filter id="filter0_b_188_13150" x="178.76" y="84.646" width="58.7305" height="49.7002" filterUnits="userSpaceOnUse" color-interpolation-filters="sRGB">
<feFlood flood-opacity="0" result="BackgroundImageFix"/>
<feGaussianBlur in="BackgroundImageFix" stdDeviation="0.385753"/>
<feComposite in2="SourceAlpha" operator="in" result="effect1_backgroundBlur_188_13150"/>
<feBlend mode="normal" in="SourceGraphic" in2="effect1_backgroundBlur_188_13150" result="shape"/>
</filter>
</defs>
</svg>

<svg xmlns="http://www.w3.org/2000/svg" width="411" height="231" fill="none" viewBox="0 0 411 231"><path stroke="#282828" d="m124.043 84.157-28.014 16.008 28.014 16.008m0-32.016 28.014 16.008-28.014 16.008m0-32.016v32.016"/><path stroke="#282828" d="M124.043 52.141 96.029 68.15l28.014 16.008m0-32.016 28.014 16.008-28.014 16.008m0-32.016v32.016M68.016 84.157l-28.014 16.008 28.014 16.008m0-32.016 28.014 16.008-28.014 16.008m0-32.016v32.016"/><path stroke="#282828" d="M208.088 4.118 11.938 116.203l196.15 112.086 196.15-112.086z"/><path stroke="#282828" d="m68.016 116.173-28.014 16.008 28.014 16.008m0-32.016 28.014 16.008-28.014 16.008m0-32.016v32.016"/><path stroke="#282828" d="m124.043 116.173-28.014 16.008 28.014 16.008m0-32.016 28.014 16.008-28.014 16.008m0-32.016v32.016"/><path stroke="#282828" d="m124.043 148.189-28.014 16.008 28.014 16.008m0-32.016 28.014 16.008-28.014 16.008m0-32.016v32.016M180.071 84.157l-28.014 16.008 28.014 16.008m0-32.016 28.013 16.008-28.013 16.008m0-32.016v32.016"/><path stroke="#282828" d="M180.071 52.141 152.057 68.15l28.014 16.008m0-32.016 28.013 16.008-28.013 16.008m0-32.016v32.016"/><path stroke="#282828" d="m180.071 20.126-28.014 16.007 28.014 16.008m0-32.015 28.013 16.007-28.013 16.008m0-32.015V52.14M180.071 116.173l-28.014 16.008 28.014 16.008m0-32.016 28.013 16.008-28.013 16.008m0-32.016v32.016"/><path stroke="#282828" d="m180.071 148.189-28.014 16.008 28.014 16.008m0-32.016 28.013 16.008-28.013 16.008m0-32.016v32.016M180.071 180.205l-28.014 16.008 28.014 16.008m0-32.016 28.013 16.008-28.013 16.008m0-32.016v32.016M236.1 84.157l-28.014 16.008 28.014 16.008m0-32.016 28.014 16.008-28.014 16.008m0-32.016v32.016"/><path stroke="#282828" d="M236.1 52.141 208.086 68.15 236.1 84.157m0-32.016 28.014 16.008L236.1 84.157m0-32.016v32.016M236.1 20.126l-28.014 16.007L236.1 52.141m0-32.015 28.014 16.007L236.1 52.141m0-32.015V52.14M236.1 116.173l-28.014 16.008 28.014 16.008m0-32.016 28.014 16.008-28.014 16.008m0-32.016v32.016"/><path stroke="#282828" d="m208.203 132.178-28.157 16.06-28.364-16.06M236.1 148.189l-28.014 16.008 28.014 16.008m0-32.016 28.014 16.008-28.014 16.008m0-32.016v32.016"/><path stroke="#282828" d="m236.1 180.205-28.014 16.008 28.014 16.008m0-32.016 28.014 16.008-28.014 16.008m0-32.016v32.016M292.127 84.157l-28.014 16.008 28.014 16.008m0-32.016 28.014 16.008-28.014 16.008m0-32.016v32.016"/><path stroke="#282828" d="m348.155 84.157-28.014 16.008 28.014 16.008m0-32.016 28.013 16.008-28.013 16.008m0-32.016v32.016M292.127 52.141 264.113 68.15l28.014 16.008m0-32.016 28.014 16.008-28.014 16.008m0-32.016v32.016M292.127 116.173l-28.014 16.008 28.014 16.008m0-32.016 28.014 16.008-28.014 16.008m0-32.016v32.016"/><path stroke="#282828" d="m348.155 116.173-28.014 16.008 28.014 16.008m0-32.016 28.013 16.008-28.013 16.008m0-32.016v32.016M292.127 148.189l-28.014 16.008 28.014 16.008m0-32.016 28.014 16.008-28.014 16.008m0-32.016v32.016"/><g filter="url(#a)"><path fill="#161616" d="m236.172 101.912-27.936 16.379-28.166-16.319 28.172-16.12z"/><path fill="#161616" d="m236.218 101.899-.04 15.004-27.98 16.239.039-14.881zM208.237 118.256l-.04 14.871-28.166-16.268.04-14.872z"/><path stroke="#3e3e3e" stroke-linejoin="bevel" d="m236.172 101.912-27.936 16.379-28.166-16.319 28.172-16.12z"/><path stroke="#3e3e3e" stroke-linejoin="bevel" d="m236.218 101.899-.04 15.004-27.98 16.239.039-14.881zM208.237 118.256l-.04 14.871-28.166-16.268.04-14.872z"/></g><defs><filter id="a" width="58.73" height="49.7" x="178.76" y="84.646" color-interpolation-filters="sRGB" filterUnits="userSpaceOnUse"><feFlood flood-opacity="0" result="BackgroundImageFix"/><feGaussianBlur in="BackgroundImageFix" stdDeviation=".386"/><feComposite in2="SourceAlpha" operator="in" result="effect1_backgroundBlur_188_13150"/><feBlend in="SourceGraphic" in2="effect1_backgroundBlur_188_13150" result="shape"/></filter></defs></svg>
